X:1
T:Dans les steppes de l'Asie centrale
T:Dans les steppes de l'Asie centrale
T:Aleksandr BORODIN (1833-1887)
T:arr:  Théodore JADOUL (1848-19_?)
T:à Franz Liszt
T:______
T:В средней Азии
T:Domaine public - Première publication: 1882
T:Domaine public - Première publication: 1882
T:Domaine public - Première publication: 1882
T:Domaine public - Première publication: 1882
T:Domaine public - Première publication: 1882
T:Domaine public - Première publication: 1882
T:Domaine public - Première publication: 1882
T:Domaine public - Première publication: 1882
T:Domaine public - Première publication: 1882
T:Domaine public - Première publication: 1882
T:Domaine public - Première publication: 1882
T:Domaine public - Première publication: 1882
C:Aleksandr Borodin
Z:Domaine public - Première publication: 1882
%%score { ( 1 4 5 ) | ( 2 3 6 ) }
L:1/8
Q:1/4=96
M:2/4
K:C
V:1 treble nm="Piano"
V:4 treble 
V:5 treble 
V:2 treble 
V:3 treble 
V:6 treble 
V:1
"^Allegretto con moto"!ppp!!8va(!{/e'-} [e'e'']4- | [e'e'']4 |{/e'-} [e'e'']4- | [e'e'']4 | %4
{/e'-} [e'e'']4- | [e'e'']4 |{/e'-} [e'e'']4- | [e'e'']4 |{/e'-} [e'e'']4- | [e'e'']4 | %10
{/e'-} [e'e'']4- | [e'e'']4 |{/e'-} [e'e'']4- | .[e'e'']4 |{/e'-} [e'e'']4- | [e'e'']4 | %16
{/e'-} [e'e'']4- | [e'e'']4 | !arpeggio![e'e'']4- | [e'e'']4- | [e'e'']4 | !arpeggio![e'e'']4- | %22
 [e'e'']4- | [e'e'']4- | [e'e'']4 |{/e'-} [e'e'']4- | [e'e'']4!8va)! |[K:bass]!pp! [E,E]4 | %28
[K:treble] !>![ee']4 |!8va(! !arpeggio![e'a'e'']4!8va)! | !>![ee']4 |[K:bass] [E,E]4 | %32
[K:treble] !>![ee']4 |!8va(! !arpeggio!!>![e'a'e'']4!8va)! | !>![ee']4 |[K:bass]!<(! !>![E,E]4 | %36
[K:treble] !>![ee']4!<)! |!8va(!!>(!{/e'-} !>![e'e'']4!8va)! | !>![ee']4!>)! | %39
!pp! !arpeggio!!>![eae']4- | [eae']4 | !arpeggio![EAe]4 |!pp!!8va(!{/e'-} [e'e'']4!8va)! | %43
!p!!<(! (!tenuto!E!tenuto!F) !tenuto!E2!<)! | (G>A) G2- | %45
!8va(! (g>!8va)!!>(!A){GA} (3(!tenuto!G!tenuto!F!>)!!tenuto!E) | (F>G F2- |!>(! F>G F2)!>)! | %48
 (!tenuto!E!tenuto!F !tenuto!E2-) |!8va(! (e>!8va)!F){EF} (3(!tenuto!E!tenuto!D!tenuto!E) | %50
 D>E{EF} (3(!tenuto!D!tenuto!C!tenuto!D) | (C>D C2- |!8va(!!>(! c>!8va)!D C2)!>)! | %53
!<(! (!tenuto!A!tenuto!B !tenuto!A2)!<)! | (!>!c>d)({cd} (3!tenuto!c!tenuto!B!tenuto!A) | %55
 (A>B)({AB} (3!tenuto!A!tenuto!G!tenuto!F) | (G>A !>!G2) | %57
!<(! (!tenuto!F!tenuto!G !tenuto!F2)!<)! | !>!A>B{AB} (3(!tenuto!A!tenuto!G!tenuto!F) | %59
!>(! (F>G)!>)!{FG} (3(!tenuto!F!tenuto!E!tenuto!D) | (E>F E2- |!>(!!8va(! e>!8va)!F!>)! E2) | %62
!<(! (!tenuto!E!tenuto!F !tenuto!E2)!<)! | (G>A) G2- | %64
!pp!!8va(! (g>!8va)!A){GA} (3(!tenuto!G!tenuto!F!tenuto!E) | (F>G) F2 | %66
 (!tenuto!E>!tenuto!F !tenuto!E2) |!8va(! (e>!8va)!!>(!F)({EF} (3!tenuto!E!tenuto!D!tenuto!E)!>)! | %68
 (D>E){DE} (3(!tenuto!D!tenuto!C!tenuto!D) | (C>D C2- |!8va(!!>(! c>!8va)!D C2)!>)! | %71
[K:bass]!p! !>![E,E]4 |[K:treble] !>![ee']4 |!8va(! !arpeggio!!>![e'a'e'']4!8va)! | !>![ee']4 | %75
[K:bass] !>![E,E]4 |[K:treble] !>![ee']4 |!8va(! !arpeggio!!>![e'a'e'']4!8va)! | !>![ee']4 | %79
[K:bass] !>![E,E]4 |[K:treble]!pp!!8va(!{/e'-} [e'e'']4!8va)! | !>![ee']4 | !>![Ee]4 | %83
!8va(!{/e'-} [e'e'']4!8va)! | [ee']4 |!pp! [Ee]4- | [Ee]4 |[K:bass] E4- | E4 | %89
[K:treble]!p! (!>!g3 f/e/) | (!tenuto![FAd]2 !tenuto![FBe]2) | (!tenuto![EAc]2 !tenuto![B,EG]2) | %92
 [DFA]2 [FB]2 | [EAc]2 (!tenuto![Gcg]2 | !tenuto![Aca]2 !tenuto![Gcg]2 | !tenuto![FAdf]2 [Ada]2) | %96
 !>![EAce]4 | [Gc]4 | (!tenuto![FAd]2 !tenuto![FBe]2) | (!tenuto![EAc]2 [B,EG]2) | [DFA]2 [FB]2 | %101
 [CEc]4 | !>![Gg]4- | [Gg]4 |!mp! [_B,_E]4 | !>![C_EF]2 !>![_B,G]2 | !>![_B,_E]2 !>!B,2 | %107
 [C_E]2 _B,2 | !>![_E,_B,_E]2 !>![B,E_B]2 | !>![C_Ec]2 !>![_B,E_B]2 | !>![_A,_E_A]2 !>![CEc]2 | %111
 !>![_EG]4 | [_B,_E]4 | !>![C_EF]2 !>![DG]2 | !>![_B,_E]2 !>!B,2 | .[C_E]2 _B,2 | %116
[K:C] !>![_E,_B,_E]2 !>![_B,E_B]2 | !>![C_Ec]2 !>![_B,E_B]2 | !>![_A,_E_A]2 !>![CEc]2 | !>!G4- | %120
 G4 |!ff! c4 | !>![Dcd]2 !>![Ece]2 | ((!>![CGc]2 [G,G]2)) | (!>![Dcd]3 [Ee]/[Dd]/) | %125
 !>![CGc]2 !>![Gcg]2 | !>![Aca]2 !>![Gcg]2 | !>![Fcf]2 !>![Aca]2 | !>![Ece]4 | c4 | %130
 !>![Dcd]2 !>![Ece]2 | ((!>![CGc]2 [G,G]2)) | (!>![Dcd]3 [Ee]/[Dd]/) | !>![CGc]2 !>![Gcg]2 | %134
 !>![Aca]2 !>![Gcg]2 | !>![Fcf]2 !>![Aca]2 |!>(! !>![Ee]4-!>)! | [Ee]4 |[K:bass]!f! !>![E,E]4 | %139
[K:treble] !>![ee']4 |!8va(! !arpeggio!!>![e'a'e'']4!8va)! | !>![ee']4 |[K:bass] !>![E,E]4 | %143
[K:treble] !>![ee']4 |!8va(! !arpeggio!!>![e'a'e'']4!8va)! | !>![ee']4 |[K:bass]!<(! !>![E,E]4 | %147
[K:treble] !>![ee']4!<)! |!>(!!8va(! !>![e'e'']4!8va)! | !>![ee']4!>)! |!p! !arpeggio![EAe]4 | %151
 !arpeggio![eae']4 |!pp!!8va(! !arpeggio!!>![e'a'e'']4!8va)! | !arpeggio![eae']4 | %154
!p! (!tenuto!E!<(!!tenuto!F !tenuto!E2) | (G>A!<)! G2-) | %156
 (G>!>(!A)({GA} (3!tenuto!G!tenuto!F!tenuto!E)!>)! | (F>G F2- |!>(! F>G!>)! F2) | %159
 (!tenuto!E!tenuto!F !tenuto!E2-) |!8va(! (e>!8va)!F)!>(!({EF} (3EDE) | (D>E)!>)!{DE} (3(DCD) | %162
 (C>D C2- |!8va(! c>!8va)!!>(!D C2)!>)! |!<(! (!tenuto!A!tenuto!B !tenuto!A2)!<)! | %165
 (!>!c>d)({cd} (3!tenuto!c!tenuto!B!tenuto!A) | (A>B)({AB} (3!tenuto!A!tenuto!G!tenuto!F) | %167
 G>A G2 | (!tenuto!F!tenuto!G !tenuto!F2) | (A>B)({AB} (3!tenuto!A!tenuto!G!tenuto!F) | %170
 (F>G)({FG} (3!tenuto!F!tenuto!E!tenuto!D) | (E>F E2- |!8va(!!>(! e>!8va)!F E2)!>)! || %173
[K:A]!p! (!tenuto![cc']!tenuto![dd'] !tenuto![cc']2) | ([ee']>[ff']) [ee']2- | %175
 ([ee']>[ff']){e'f'} (3(!tenuto![ee']!tenuto![dd']!tenuto![cc']) | ([dd']>[ee']) [dd']2 | %177
 (!tenuto![cc']!tenuto![dd'] !tenuto![cc']2-) | %178
 (.[cc']>[dd'])({c'd'} (3!tenuto![cc']!tenuto![Bb]!tenuto![cc']) | %179
 (b>c')({bc'} (3!tenuto!b!tenuto!a!tenuto!b) | (a>!>(!b a2- | a>b!>)! a2) | %182
 (!tenuto![Cc]!tenuto![Dd] !tenuto![Cc]2) | ([Ee]>[Ff]) [Ee]2- | %184
 [Ee]>[Ff]({ef} (3!tenuto![Ee]!tenuto![Dd]!tenuto![Cc]) | ([Dd]>[Ee]) [Dd]2 | %186
 !tenuto![Cc]!tenuto![Dd] !tenuto![Cc]2- | %187
 ([Cc]>[Dd])({cd} (3!tenuto![Cc]!tenuto![B,B]!tenuto![Cc]) | %188
 (B>c)({Bc} (3!tenuto!B!tenuto!A!tenuto!B) |!>(! (A>B A2- | A>!>)!B A2) |!p!"^dolce" (!>!e3 d/c/) | %192
 (!tenuto!B2 !tenuto!c2) |[K:A] !tenuto!A2 z2 | (!>!B3 c/B/) | A2 (!tenuto!e2 | %196
 !tenuto!f2 !tenuto!e2) | f2 !tenuto!f2 | !>![Fc]4 |!p!"^dolce" (!>!e3 d/c/) | %200
 !tenuto!B2 !tenuto!c2 | !tenuto!A2 !tenuto!E2 | (!>!B3 c/B/) | [EA]4 | [EGe]4 | [DEGe]4 | %206
 [A,CA]4- | [A,CA]4 |!mf! (!arpeggio!!>![eae']3 [dd']/[cc']/) | !arpeggio!!>![Bdegb]2 !>![cc']2 | %210
 !arpeggio!!>![Acea]2 !tenuto![Ee]2 | (!arpeggio!!>![Begb]3 [cc']/[Bb]/) | %212
 !arpeggio!!>![Aea]2 !>![eae']2 | !arpeggio!!>![fac'f']2 !>![ee']2 | %214
 !arpeggio!!>![dfbd']2 !>![ff']2 |!>(! !arpeggio!!>![cfc']4 | !arpeggio![CFc]4!>)! | %217
 (!tenuto![cc']!tenuto![dd'] !tenuto![cc']2) | ([ee']>[ff']) [ee']2 | %219
 ([ee']>[ff'])({e'f'} (3!tenuto![ee']!tenuto![dd']!tenuto![cc']) | ([dd']>[ee']) [dd']2 | %221
 !tenuto![cc']!tenuto![dd'] [cc']2- | %222
 ([cc']>[dd'])({c'd'} (3!tenuto![cc']!tenuto![Bb]!tenuto![cc']) | %223
 ([Bb]>[cc'])({bc'} (3!tenuto!b!tenuto![Aa]!tenuto![Bb]) |!>(! ([Aa]>[Bb] [Aa]2- | %225
 [Aa]>[Bb]!>)! [Aa]2) |!p!!<(!{/A-} (A3 =G/F/) | (E2 F2)!<)! | (!arpeggio!d3 e/d/) | (c2 d2) | %230
!>(! (!tenuto![Bb]4!>)! | !tenuto![cc']4) | (!arpeggio!!>![Aea]4 | [Ee]4) | %234
!<(!{/A-} (A3 =G/F/)!<)! | (E2 F2) | (!>!a3!>(! e/d/ | !tenuto!c2)!>)! !tenuto!d2 | ([Bb]4 | %239
 [cc']4) | !>![ee'-]4 | (e'2 [dd'][cc']) | ([Bb]4 | [cc']4) | a4 | z2 dc | ([D-=F-B]4 | [DFc]4) | %248
 (((!>![Ae-]4 | e2) dc)) | ([D-=F-B]4 | [DFc]4) | z .A, z .A, | z .A, z A, |!p! [FB]4- | B2 cB | %256
 ([EA]4 | !tenuto![EAe]4 | !tenuto![Af]4 | !tenuto![Ae]4 | (!tenuto![Ad]4 | !tenuto![A-f]4)) | %262
 !>![EAc]4- | [E-A-c]4 | !>![EAe]4- | [EAe]4 | !arpeggio![eae']4- | [eae']4- | [eae']4 | %269
 !arpeggio![eae']4 |!pp!!8va(!{/e'-} [e'e'']4- | [e'e'']4 |{e'-} [e'e'']4- | [e'e'']4 | %274
{/e'-} [e'e'']4- |[Q:1/4=90] [e'e'']4 |[Q:1/4=80]{/e'-} [e'e'']4-[Q:1/4=72] | [e'e'']4 | %278
{/e'-} [e'e'']4- | [e'e'']4 | !arpeggio![e'a'e'']4- | [e'a'e'']4- | !fermata![e'a'e'']4!8va)! |] %283
V:2
!ped! z4!ped-up! |!pp! (!>!e4 | e2) z2 |!p! !>!e4 |"^cantabile" (!>!e3 d/^c/) | %5
w: |||||
w: |||||
 !tenuto!B2 !tenuto!^c2 | (A2 E2) | (B3 ^c/B/ | A2) !tenuto!e2 | !tenuto!^f2 !tenuto!e2 | %10
w: |||||
w: |||||
 !tenuto!d2 !tenuto!^f2 | !>!^c4 | !>!e4- | e4- | e4- | e4 | (!>!G3 F/E/) | !tenuto!D2 !tenuto!E2 | %18
w: ||||||||
w: ||||||||
 (!tenuto!C2 !tenuto!G,2) | (!>!D3 E/D/ | C2 !tenuto!G2 | !tenuto!A2 !tenuto!G2 | %22
w: ||||
w: ||||
 !tenuto!F2 !tenuto!A2) | !>!E4- | !>![Ee]4- | [E-e]4 | !>![Ee]4 |[K:bass] .^A,,,.^A,, .B,,,.B,, | %28
w: ||||||
w: ||||||
 .^A,,,.^A,, .B,,,.B,, | .^B,,,.^B,, .^C,,.^C, | .^B,,,.^B,, .^C,,.^C, | .^A,,,.^A,, .B,,,.B,, | %32
w: ||||
w: ||||
 .^A,,,.^A,, .B,,,.B,, | .^B,,,.^B,, .^C,,.^C, | .^B,,,.^B,, .^C,,.^C, | .^A,,,.^A,, .B,,,.B,, | %36
w: ||||
w: ||||
 .^A,,,.^A,, .D,,.D, | .^C,,.^C, .=C,,.=C, | .B,,,.B,, ._B,,,._B,, | z A,,2 A,, | z A,,2 A,, | %41
w: |||||
w: |||||
 z A,,2 A,, | z A,,2 A,, |"^cantabile ed espressivo" z"_sostenuto" A,,2 A,, | z A,,2 A,, | %45
w: ||||
w: |||. *|
 z A,,2 A,, | z A,,2 A,, | z A,,2 A,, | z A,,2 A,, | z A,,2 A,, | z A,,2 A,, | z A,,2 A,, | %52
w: |||||||
w: |||||||
 z A,,2 A,, | z A,,2 A,, | z A,,2 A,, | z A,,2 A,, | z A,,2 A,, | z A,,2 A,, | z A,,2!pp! A,, | %59
w: |||||||
w: |||||||
 z A,,2 A,, | z A,,2 A,, | z A,,2 A,, | z A,,2 A,, | z A,,2 A,, | z A,,2 A,, | z A,,2 A,, | %66
w: |||||||
w: |||||||
 z A,,2 A,, | z A,,2 A,, | z A,,2 A,, | z A,,2 A,, | z A,,2 A,, | %71
w: |||||
w: |||||
 .[^A,,,^A,,][I:staff -1].^A,[I:staff +1].[B,,,B,,][I:staff -1].B, | %72
w: |
w: |
[I:staff +1] .[^A,,,^A,,].^A,.[B,,,B,,].B, | .[^B,,,^B,,].^B,.[^C,,^C,].^C | %74
w: ||
w: ||
 .[^B,,,^B,,].^B,.[^C,,^C,].^C | %75
w: |
w: |
 .[^A,,,^A,,][I:staff -1].^A,[I:staff +1].[B,,,B,,][I:staff -1].B, | %76
w: |
w: |
[I:staff +1] .[^A,,,^A,,].^A,.[B,,,B,,].B, | .[^B,,,^B,,].^B,.[^C,,^C,].^C | %78
w: ||
w: ||
 .[^B,,,^B,,].^B,.[^C,,^C,].^C | %79
w: |
w: |
!<(! .[^A,,,^A,,][I:staff -1].^A,[I:staff +1].[B,,,B,,]!<)![I:staff -1].B, | %80
w: |
w: |
!<(![I:staff +1] .[^A,,,^A,,].^A,.[D,,D,].D!<)! |!>(! .[C,,^C,].^C.[=C,,=C,].=C | %82
w: ||
w: ||
 .[B,,,B,,].B,.[_B,,,_B,,]._B,!>)! | .[A,,,A,,].A,.[^G,,,^G,,].^G, | %84
w: ||
w: ||
 .[=G,,,=G,,].=G,.[F,,,F,,].F, | .[E,,,E,,].E,.[F,,,F,,].F, | .[E,,,E,,].E,.[F,,,F,,].F, | %87
w: |||
w: |||
 .[E,,,E,,][I:staff -1].E,[I:staff +1].[G,,,G,,][I:staff -1].G, | %88
w: |
w: |
[I:staff +1] .[E,,,E,,][I:staff -1].E,[I:staff +1].[G,,,G,,][I:staff -1].G, | %89
w: |
w: |
[I:staff +1] .E,,,.E,,.E,,.E, | .F,,.F,.G,,.G, | .A,,.A,.E,,.E, | .D,,.D,.G,,.G, | .A,,.A,.E,,.E, | %94
w: |||||
w: |||||
 .F,,.F,.E,,.E, | .D,,.D,.F,,.F, | .A,,.A,.C,.C | .E,,,.E,,.E,,.E, | .F,,.F,.G,,.G, | %99
w: |||||
w: |||||
 .A,,.A,.E,,.E, | .D,,.D,.G,,,.G,, | .C,,.C,.A,,,.A,, | .G,,,.G,,.A,,,.A,, | .G,,,.G,,._A,,,._A,, | %104
w: |||||
w: |||||
 .G,,,.G,, .G,,.G, | ._A,,,._A,, !arpeggio!._B,,,._B,, | .G,,,.G,, .G,,.G, | ._A,,,._A,, .A,,._A, | %108
w: ||||
w: ||||
 .G,,,.G,, .G,,.G, | ._A,,,._A,, .G,,,.G,, | .F,,,.F,, ._A,,,._A,, | .C,,.C, .C,.C | %112
w: ||||
w: ||||
 .G,,,.G,, .G,,.G, | ._A,,,._A,, !arpeggio!._B,,,._B,, | .G,,,.G,, .G,,.G, | ._A,,,._A,, .A,,._A, | %116
w: ||||
w: ||||
[K:C] .G,,,.G,, .G,,G, | ._A,,,._A,, .G,,,.G,, | .F,,,.F,, ._A,,,._A,, | .G,,,.G,, .G,,.G, | %120
w: ||||
w: ||||
 .G,,,.G,, .G,,.G, | !>![E,,C,E,]4 | !>![F,,C,F,]2 !>![G,,C,G,]2 | !>![E,,C,E,]4 | %124
w: ||||
w: ||||
 !>![F,,C,F,]2 !>![G,,G,]2 | !>![E,,C,E,]2 !>![E,,C,E,]2 | !>![F,,C,F,]2 !>![E,,C,E,]2 | %127
w: |||
w: |||
 !>![D,,C,D,]2 !>![F,,C,F,]2 | !///-!A,,,2 A,,2 | !>![E,,C,E,]4 | !>![F,,C,F,]2 !>![G,,C,G,]2 | %131
w: ||||
w: ||||
 !>![E,,C,E,]4 | !>![F,,C,F,]2 !>![G,,G,]2 | !>![E,,C,E,]2 !>![E,,C,E,]2 | %134
w: |||
w: |||
 !>![F,,C,F,]2 !>![E,,C,E,]2 | !>![D,,C,D,]2 !>![F,,C,F,]2 | !///-!E,,,2 E,,2 | !///-!E,,,2 E,,2 | %138
w: ||||
w: ||||
 .[^A,,,^A,,][I:staff -1].A,[I:staff +1].[B,,,B,,][I:staff -1].B, | %139
w: |
w: |
[I:staff +1] .[^A,,,^A,,].^A,.[B,,,B,,].B, | .[^B,,,^B,,].^B,.[^C,,^C,].^C | %141
w: ||
w: ||
 .[^B,,,^B,,].^B,.[^C,,^C,].^C | %142
w: |
w: |
 .[^A,,,^A,,][I:staff -1].^A,[I:staff +1].[B,,,B,,][I:staff -1].B, | %143
w: |
w: |
[I:staff +1] .[^A,,,^A,,].^A,.[B,,,B,,].B, | .[^B,,,^B,,].^B,.[^C,,^C,].^C | %145
w: ||
w: ||
 .[^B,,,^B,,].^B,.[^C,,^C,].^C | %146
w: |
w: |
 .[^A,,,^A,,][I:staff -1].^A,[I:staff +1].[B,,,B,,][I:staff -1].B, | %147
w: |
w: |
[I:staff +1] .[^A,,,^A,,].^A,.[D,,D,].D | .[^C,,^C,].^C.[=C,,=C,].=C | %149
w: ||
w: ||
 .[B,,,B,,].B,.[_B,,,_B,,]._B, | z .A,, z .A,, | z .A,, z .A,, | z2 .A,, z | z2 .A,, z | %154
w: |||||
w: |||||
"^cantabile ed espressivo" z A,,2 A,, | z A,,2 A,, | z A,,2 A,, | z A,,2 A,, | z A,,2 A,, | %159
w: |||||
w: |||||
 z A,,2 A,, | z A,,2 A,, | z A,,2 A,, | z A,,2 A,, | z A,,2 A,, | z A,,2 A,, | z A,,2 A,, | %166
w: |||||||
w: |||||||
 z A,,2 A,, | z A,,2 A,, | z A,,2 A,, | z A,,2 A,, | z A,,2 A,, | z A,,2 A,, | z A,,2 A,, || %173
w: |||||||
w: |||||||
[K:A]"^cantabile" z"_sostenuto" !>![A,A]2 !>![A,A] | z !>![A,A]2 [A,A] | z !>![A,A]2 [A,A] | %176
w: |||
w: |||
 z !>![A,A]2 [A,A] | z !>![A,A]2 [A,A] | z !>![A,A]2 [A,A] | z [A,A]2 [A,A] | z !>![A,A]2 [A,A] | %181
w: |||||
w: |||||
 z !>![A,A]2 [A,A] | z !>!A,2 A, |"_legato" z !>!A,2 A, | z !>!A,2 A, | z !>!A,2 A, | z !>!A,2 A, | %187
w: ||||||
w: ||||||
 z !>!A,2 A, | z !>!A,2 A, | z !>!A,2 A, | z !>!A,2 A, | %191
w: ||||
w: ||||
"_marcato il tema" (!tenuto!C!tenuto!D !tenuto!C2) | (E>F E2-) | %193
w: ||
w: ||
[K:A] (E>F)({EF} (3E!tenuto!D!tenuto!C) | ([DE]>E D2) | !tenuto!C!tenuto!D !tenuto!C2- | %196
w: |||
w: |||
 C>D({CD)} (3(!tenuto!CB,C) | (B,>C)({B,C)} (3(!tenuto!B,A,B,) | (A,>B, A,2) | %199
w: |||
w: |||
"_marcato il tema" (A,>B, A,2) | (E,>F,) E,2- | (E,>F,)({E,F,} (3!tenuto!E,!tenuto!D,!tenuto!C,) | %202
w: |||
w: |||
 (D,>E, D,2) | !tenuto!C,!tenuto!D, !tenuto!C,2- | %204
w: ||
w: ||
 (C,>D,)({C,D,} (3!tenuto!C,!tenuto!B,,!tenuto!C,) | %205
w: |
w: |
 B,,>C,({B,,C,} (3!tenuto!B,,!tenuto!A,,!tenuto!B,,) | (A,,>B,, A,,2-) | (A,,>B,, A,,2) | %208
w: |||
w: |||
"^un poco marcato" !tenuto![C,C]!tenuto![D,D] !tenuto![C,C]2 | ([F,F]>[F,F]) ([E,E]2- | %210
w: ||
w: ||
 [E,E]>[F,F]) (3(!tenuto![E,E]!tenuto![D,D]!tenuto![C,C]) | [D,D]>[E,E] [D,D]2 | %212
w: ||
w: ||
 !tenuto![C,C]!tenuto![D,D] (!tenuto![C,C]2- | %213
w: |
w: |
 [C,C]>[D,D]) (3(!tenuto![C,C]!tenuto![B,,B,]!tenuto![C,C]) | %214
w: |
w: |
 ([B,,B,]>[C,C]) (3(!tenuto![B,,B,]!tenuto![A,,A,]!tenuto![B,,B,]) | ([A,,A,]>[B,,B,] [A,,A,]2- | %216
w: ||
w: ||
 [A,,A,]>[B,,B,] [A,,A,]2) |"^dolce""^marcato" z E,2 E, | z D,2 D, | z C,2 C, | z B,,2 B,, | %221
w: |||||
w: |||||
"^marcato" z E,2 E, | z E,2 E, | z E,2 E, | z A,,2 A,, | z A,,2 A,, | z .A,, z .A,, | %227
w: ||||||
w: ||||||
 z .A,, z .A,, | z .A,, z .A,, | z .A,, z .A,, |{/A,,,-} .A,,,.[A,,A,] .G,,,.[G,,G,] | %231
w: ||||
w: ||||
 .A,,,.[A,,A,] .G,,,.[G,,G,] | z .A,, z .A,, | z .A,, z .A,, | z .A,, z .A,, | z .A,, z .A,, | %236
w: |||||
w: |||||
 z .A,, z .A,, | z .A,, z .A,, |{/A,,,-} .A,,,.[A,,A,] .G,,,.[G,,G,] | %239
w: |||
w: |||
 .A,,,.[A,,A,] .G,,,.[G,,G,] | z .A,, z .A,, | z .A,, z .A,, | %242
w: |||
w: |||
{/A,,,-} .A,,,.[A,,A,] .G,,,.[G,,G,] | .A,,,.[A,,A,] .G,,,.[G,,G,] | z .A,, z .A,, | %245
w: |||
w: |||
 z .A,, z .A,, | .A,,,.[A,,A,] .G,,,.[G,,G,] | .A,,,.[A,,A,] .G,,,.[G,,G,] | %248
w: |||
w: |||
"^cantabile" z .A,, z .A,, | z .A,, z .A,, | .A,,,.[A,,A,] .G,,,.[G,,G,] | %251
w: |||
w: |||
 .A,,,.[A,,A,] .G,,,.[G,,G,] | (A,,,4 | A,,4) | z A, z A, | z .A, z .A, | z .A, z .A, | %257
w: ||||||
w: ||||||
 z .A, z .A, | z .A, z .A, | z .A, z .A, | z .A, z .A, | z .A, z .A, | z .A, z .A, | z .A, z .A, | %264
w: |||||||
w: |||||||
 z .A, z .A, | z .A, z .A, | z2 .A, z | z2 .A, z | z2 .A, z | z4 |[K:treble] (!>!e3 d/c/) | %271
w: |||||||
w: |||||||
 (B2 c2) | (A2 E2) | (!>!B3 c/B/) | !tenuto!A2 (e2 |"^ritenuto poco a poco" !tenuto!f2 !tenuto!e2 | %276
w: |||||
w: |||||
 !tenuto!d2 !tenuto!f2) | !>!c4- | c4- | c4 |"^perdandosi" !arpeggio![cea]4- | [cea]4- | %282
w: ||||||
w: ||||||
 !fermata![cea]4 |] %283
w: |
w: |
V:3
 x4 | x4 | x4 | x4 | x4 | x4 | x4 | x4 | x4 | x4 | x4 | x4 | x4 | x4 | x4 | x4 | x4 | x4 | x4 | %19
 x4 | x4 | x4 | x4 | x4 | x4 | x4 | x4 |[K:bass] x4 | x4 | x4 | x4 | x4 | x4 | x4 | x4 | x4 | x4 | %37
 x4 | x4 | A,,,4- | A,,,4 | A,,,4- | A,,,4 | A,4 | B,4 | [_B,^C]4 | A,4- | A,4 | ^G,4 | [=G,_B,]4 | %50
 F,4 | [E,A,]4- | [E,A,]4 | F,4 | A,4 | F,4 | E,4 | D,4 | F,4 | D,2 A,2 | [^G,B,]4- | [G,B,]4 | %62
 A,4 | B,4 | [_B,^C]4 | A,4 | ^G,4 | [=G,_B,]4 | F,4 | [E,A,]4- | [E,A,]4 | x4 | x4 | x4 | x4 | %75
 x4 | x4 | x4 | x4 | x4 | x4 | x4 | x4 | x4 | x4 | x4 | x4 | x4 | x4 | x4 | x4 | x4 | x4 | x4 | %94
 x4 | x4 | x4 | x4 | x4 | x4 | x4 | x4 | x4 | x4 | x4 | x2 !>!D,2 | x4 | x2 !>!D,2 | x2 !>!_E,2 | %109
 x4 | x4 | !arpeggio!!>!_E,4 | x4 | x2 !>!D,2 | x4 | x2 D,2 |[K:C] x2 !>!_E,2 | x4 | x4 | x4 | x4 | %121
 x4 | x4 | x4 | x4 | x4 | x4 | x4 | x4 | x4 | x4 | x4 | x4 | x4 | x4 | x4 | x4 | x4 | x4 | x4 | %140
 x4 | x4 | x4 | x4 | x4 | x4 | x4 | x4 | x4 | x4 | A,,,4- | A,,,4 | A,,,4- | A,,,4 | A,4 | B,4 | %156
 [_B,^C]4 | A,4- | A,4 | ^G,4 | [=G,_B,]4 | F,4 | [E,A,]4- | [E,A,]4 | F,4 | A,4 | F,4 | E,4 | %168
 D,4 | F,4 | D,2 A,2 | [^G,B,]4- | [G,B,]4 ||[K:A] [A,,A,]4 | [A,,G,]4 | [A,,=G,]4 | [A,,F,]4 | %177
 [A,,=F,]4 | [A,,E,]4 | !arpeggio![A,,D,D]4 | !arpeggio![A,,C,C]4 | !arpeggio![A,,D,B,]4 | %182
 [A,,E,]4 | ([G,,G,]4 | [=G,,=G,]4 | [F,,F,]4) | [=F,,=F,]4 | [E,,E,]4 | [D,,D,]4 | [C,,C,]4 | %190
 [C,C]4 | x4 | x4 |[K:A] x2 !>!E2 | x4 | x4 | x4 | x4 | x4 | !tenuto!C,!tenuto!D, !tenuto!C,2 | %200
 A,4 | x4 | [G,B,]4 | A,4 | G,4 | G,4 | x4 | x4 |{/A,,,-} A,,,4 |{/A,,,-} A,,,4 | A,,,4 | %211
{/A,,,-} A,,,4 |{/A,,,-} A,,,4 | F,,,4 |{/F,,,-} F,,,4 |{/F,,,-} F,,,4 | x3 F,, | (E3 D/C/) | %218
 !tenuto!B,2 !tenuto!C2 | (!tenuto!A,2 !tenuto!E,2) | (!>!B,3 C/B,/) | !>!A,2 !>!E2 | !>!F2 !>!E2 | %223
 !>!D2 !>!F2 | !>!C4- | C4 | [=G,B,]4 | A,,,4 | [F,D]4 | A,4 | [D=F]4- | [DF]4 | !>!C4- | C4 | %234
 [=G,B,]4 | A,,,4 | [F,D]4 | A,4 | [D=F]4- | [DF]4 | [C-A]4 | C4 | [D=F]4- | [DF]4 | !>!C4- | C4 | %246
 x4 | x4 | C4- | C4 | x4 | x4 | x4 | x4 | D,4- | D,4 | C,4- | C,4 | ([D,D]4 | C,4) | (B,,4 | D,4) | %262
 A,,4- | A,,4 | x4 | x4 | x4 | x4 | x4 | x4 |[K:treble] x4 | x4 | x4 | x4 | x4 | x4 | x4 | x4 | %278
 x4 | x4 | x4 | x4 | x4 |] %283
V:4
!8va(! x4 | x4 | x4 | x4 | x4 | x4 | x4 | x4 | x4 | x4 | x4 | x4 | x4 | x4 | x4 | x4 | x4 | x4 | %18
 x4 | x4 | x4 | x4 | x4 | x4 | x4 | x4 | x4!8va)! |[K:bass] x4 |[K:treble] x4 |!8va(! x4!8va)! | %30
 x4 |[K:bass] x4 |[K:treble] x4 |!8va(! x4!8va)! | x4 |[K:bass] x4 |[K:treble] x4 | %37
!8va(! x4!8va)! | x4 | x4 | x4 | x4 |!8va(! x4!8va)! | C4 | D4 |!8va(!{/e'-} [e'e'']4!8va)! | %46
 =C4- | C4 | B,4 |!8va(!{/e'-} [e'e'']4!8va)! | (A,2 ^G,2) | x4 |!8va(!{/e'-} [e'e'']4!8va)! | C4 | %54
 F4 | C4 | C4 | C4 | C4 | C4 | x4 |!8va(!{/e'-} [e'e'']4!8va)! | C4 | D4 | %64
!8va(!{/e'-} [e'e'']4!8va)! | =C4 | B,4 |!8va(!{/e'-} [e'e'']4!8va)! | ((A,2 ^G,2)) | x4 | %70
!8va(!{/e'-} [e'e'']4!8va)! |[K:bass] x4 |[K:treble] x4 |!8va(! x4!8va)! | x4 |[K:bass] x4 | %76
[K:treble] x4 |!8va(! x4!8va)! | x4 |[K:bass] x4 |[K:treble]!8va(! x4!8va)! | x4 | x4 | %83
!8va(! x4!8va)! | x4 | x4 | x4 |[K:bass] x4 | x4 |[K:treble] [GB]4 | x4 | x4 | (!>!d3 e/d/) | x4 | %94
 x4 | x4 | x4 | (g3 f/e/) | x4 | x4 | (d3 e/d/) | x4 | x4 | x4 | (!>!_B3 _A/G/) | x4 | _E,4 | %107
 (!>!F3 G/F/) | x4 | x4 | x4 | x4 | (!>!_B3 _A/G/) | x4 | _E,4 | (!>!F2 x G/F/) |[K:C] x4 | x4 | %118
 x4 | G,3 x | x4 | (!>![Gg]3 [Ff]/[Ee]/) | x4 | x4 | x4 | x4 | x4 | x4 | x4 | %129
 (!>![Gg]3 [Ff]/[Ee]/) | x4 | x4 | x4 | x4 | x4 | x4 | x4 | x4 |[K:bass] x4 |[K:treble] x4 | %140
!8va(! x4!8va)! | x4 |[K:bass] x4 |[K:treble] x4 |!8va(! x4!8va)! | x4 |[K:bass] x4 | %147
[K:treble] x4 |!8va(! x4!8va)! | x4 | x4 | x4 |!8va(! x4!8va)! | x4 | C4 | D4 |{/e-} [ee']4 | %157
 =C4- | C4 | B,4 |!8va(!{/e'-} [e'e'']4!8va)! | (A,2 ^G,2) | x4 |!8va(!{/e'-} [e'e'']4!8va)! | C4 | %165
 F4 | C4 | C4 | C4 | C4 | C4 | x4 |!8va(!{/e'-} [e'e'']4!8va)! ||[K:A] a4 | a4- | a4 | a4 | a4- | %178
 a4 | f2- f2 | e4 | [Bd]4 | A4 | A4- | A4 | A4 | A4- | A4 | F2- F2 | E4- | E4 | [EG]4 | [DG]4 | %193
[K:A] C2 x2 | G4 | [EA-]4 | [Af-]4 | [FB]4 | x4 | [EA]4 | [DF]4 | [A,C]4 | !>!E4 | x4 | x4 | x4 | %206
 x4 | !>![ee']4 | x4 | x4 | x4 | x4 | x4 | x4 | x4 | x4 | x4 | a4 | (g4 | a4) | [fa]4 | a4- | a4 | %223
 x2 d2 | e4- | e4 | !>!a4 | [=G,C]4 | !arpeggio!!>![Aa]3 x | F4 | x4 | x4 | x4 | x4 | !>!a4 | %235
 [=G,C]4 | f3 x | [FA]4 | x4 | x4 | a4 | e4 | x4 | x4 | [Ae]4 | [Ee]4 | x4 | x4 | x4 | E4 | x4 | %251
 x4 | (!>![C-A]4 | [CE]4) | x4 | F4 | x4 | x4 | x4 | x4 | x4 | x4 | x4 | x4 | x4 | x4 | x4 | x4 | %268
 x4 | x4 |!8va(! x4 | x4 | x4 | x4 | x4 | x4 | x4 | x4 | x4 | x4 | x4 | x4 | x4!8va)! |] %283
V:5
!8va(! x4 | x4 | x4 | x4 | x4 | x4 | x4 | x4 | x4 | x4 | x4 | x4 | x4 | x4 | x4 | x4 | x4 | x4 | %18
 x4 | x4 | x4 | x4 | x4 | x4 | x4 | x4 | x4!8va)! |[K:bass] x4 |[K:treble] x4 |!8va(! x4!8va)! | %30
 x4 |[K:bass] x4 |[K:treble] x4 |!8va(! x4!8va)! | x4 |[K:bass] x4 |[K:treble] x4 | %37
!8va(! x4!8va)! | x4 | x4 | x4 | x4 |!8va(! x4!8va)! | x4 | x4 |!8va(! x3/2!8va)! x5/2 | x4 | x4 | %48
 x4 |!8va(! x3/2!8va)! x5/2 | x4 | x4 |!8va(! x3/2!8va)! x5/2 | x4 | x4 | x4 | x4 | x4 | x4 | x4 | %60
 x4 |!8va(! x3/2!8va)! x5/2 | x4 | x4 |!8va(! x3/2!8va)! x5/2 | x4 | x4 |!8va(! x3/2!8va)! x5/2 | %68
 x4 | x4 |!8va(! x3/2!8va)! x5/2 |[K:bass] x4 |[K:treble] x4 |!8va(! x4!8va)! | x4 |[K:bass] x4 | %76
[K:treble] x4 |!8va(! x4!8va)! | x4 |[K:bass] x4 |[K:treble]!8va(! x4!8va)! | x4 | x4 | %83
!8va(! x4!8va)! | x4 | x4 | x4 |[K:bass] x4 | x4 |[K:treble] x4 | x4 | x4 | x4 | x4 | x4 | x4 | %96
 x4 | x4 | x4 | x4 | x4 | x4 | x4 | x4 | x4 | x4 | x4 | x4 | x4 | x4 | x4 | x4 | x4 | x4 | x4 | %115
 x4 |[K:C] x4 | x4 | x4 | x4 | x4 | x4 | x4 | x4 | x4 | x4 | x4 | x4 | x4 | x4 | x4 | x4 | x4 | %133
 x4 | x4 | x4 | x4 | x4 |[K:bass] x4 |[K:treble] x4 |!8va(! x4!8va)! | x4 |[K:bass] x4 | %143
[K:treble] x4 |!8va(! x4!8va)! | x4 |[K:bass] x4 |[K:treble] x4 |!8va(! x4!8va)! | x4 | x4 | x4 | %152
!8va(! x4!8va)! | x4 | x4 | x4 | x4 | x4 | x4 | x4 |!8va(! x3/2!8va)! x5/2 | x4 | x4 | %163
!8va(! x3/2!8va)! x5/2 | x4 | x4 | x4 | x4 | x4 | x4 | x4 | x4 |!8va(! x3/2!8va)! x5/2 ||[K:A] x4 | %174
 x4 | x4 | x4 | x4 | x4 | B4 | x4 | x4 | x4 | x4 | x4 | x4 | x4 | x4 | B,4 | x4 | x4 | x4 | x4 | %193
[K:A] x4 | x4 | x4 | x4 | !tenuto!d2 x2 | x4 | x4 | x4 | x4 | x4 | x4 | x4 | x4 | x4 | x4 | x4 | %209
 x4 | x4 | x4 | x4 | x4 | x4 | x4 | x4 | x4 | x4 | x4 | x4 | x4 | x4 | x4 | x4 | x4 | x4 | x4 | %228
 x4 | x4 | x4 | x4 | x4 | x4 | x4 | x4 | A4- | x4 | x4 | x4 | x4 | x4 | x4 | x4 | x4 | x4 | x4 | %247
 x4 | x4 | x4 | x4 | x4 | x4 | x4 | x4 | x4 | x4 | x4 | x4 | x4 | x4 | x4 | x4 | x4 | x4 | x4 | %266
 x4 | x4 | x4 | x4 |!8va(! x4 | x4 | x4 | x4 | x4 | x4 | x4 | x4 | x4 | x4 | x4 | x4 | x4!8va)! |] %283
V:6
 x4 | x4 | x4 | x4 | x4 | x4 | x4 | x4 | x4 | x4 | x4 | x4 | x4 | x4 | x4 | x4 | x4 | x4 | x4 | %19
 x4 | x4 | x4 | x4 | x4 | x4 | x4 | x4 |[K:bass] x4 | x4 | x4 | x4 | x4 | x4 | x4 | x4 | x4 | x4 | %37
 x4 | x4 | x4 | x4 | x4 | x4 | x4 | x4 | x4 | x4 | x4 | x4 | x4 | x4 | x4 | x4 | x4 | x4 | x4 | %56
 x4 | x4 | x4 | x4 | x4 | x4 | x4 | x4 | x4 | x4 | x4 | x4 | x4 | x4 | x4 | x4 | x4 | x4 | x4 | %75
 x4 | x4 | x4 | x4 | x4 | x4 | x4 | x4 | x4 | x4 | x4 | x4 | x4 | x4 | x4 | x4 | x4 | x4 | x4 | %94
 x4 | x4 | x4 | x4 | x4 | x4 | x4 | x4 | x4 | x4 | x4 | x4 | x4 | x4 | x4 | x4 | x4 | x4 | x4 | %113
 x4 | x4 | x4 |[K:C] x4 | x4 | x4 | x4 | x4 | x4 | x4 | x4 | x4 | x4 | x4 | x4 | x4 | x4 | x4 | %131
 x4 | x4 | x4 | x4 | x4 | x4 | x4 | x4 | x4 | x4 | x4 | x4 | x4 | x4 | x4 | x4 | x4 | x4 | x4 | %150
 x4 | x4 | x4 | x4 | x4 | x4 | x4 | x4 | x4 | x4 | x4 | x4 | x4 | x4 | x4 | x4 | x4 | x4 | x4 | %169
 x4 | x4 | x4 | x4 ||[K:A] x4 | x4 | x4 | x4 | x4 | x4 | x4 | x4 | x4 | x4 | x4 | x4 | x4 | x4 | %187
 x4 | x4 | x4 | x4 | x4 | x4 |[K:A] x4 | x4 | x4 | x4 | x4 | x4 | x4 | x4 | x4 | x4 | x4 | x4 | %205
 x4 | x4 | x4 | x3 A,, | x3 A,, | x4 | x3 A,, | x3 A,, | x4 | x4 | x3 F,, | F,,,4 |{/E,,-} E,,4 | %218
{/D,,-} D,,4 |{/C,,-} C,,4 |{/B,,,-} B,,,4 |{/E,,-} E,,4 |{/E,,-} E,,4 |{/E,,-} E,,4 | %224
{/A,,,-} A,,,4- | A,,,4 |{/A,,,-} A,,,4 | x4 |{/A,,,-} A,,,4 |{/A,,,-} A,,,4 | x4 | x4 | %232
{A,,,} A,,,4- | A,,,4 |{/A,,,-} A,,,4 | x4 |{/A,,,-} A,,,4 |{/A,,,-} A,,,4 | x4 | x4 | %240
{/A,,,-} A,,,4 | A,,,4 | x4 | x4 |{/A,,,-} A,,,4 | A,,,4 | x4 | x4 |{/A,,,-} A,,,4 | A,,,4 | x4 | %251
 x4 | x4 | x4 | x4 | x4 | x4 | x4 | x4 | x4 | x4 | x4 | x4 | x4 | x4 | x4 | x4 | x4 | x4 | x4 | %270
[K:treble] x4 | x4 | x4 | x4 | x4 | x4 | x4 | x4 | x4 | x4 | x4 | x4 | x4 |] %283

